jsapp/svg-icons/qt-template-lock.svg

<svg height="642" viewBox="0 0 642 642" width="642" xmlns="http://www.w3.org/2000/svg"><g fill="#000" fill-rule="nonzero"><path d="m344.97 273.07h71.89v-47.93h-191.72v47.93h71.89v143.79h47.94z"/><path d="m352.63 464.8h-223.36v-287.6h383.46v55.89c1.52-.06 3-.09 4.59-.09 14.798477-.014194 29.480009 2.620692 43.35 7.78v-63.58c0-26.471008-21.458992-47.93-47.93-47.93h-383.47c-26.471008 0-47.93 21.458992-47.93 47.93v287.6c0 26.471008 21.458992 47.93 47.93 47.93h223.36z"/><path d="m517.22 357.63v.05h.17v-.08l-.08-.08s-.07.08-.09.11z"/><path d="m601.92 397.69v-40.08c0-46.728813-37.881187-84.61-84.61-84.61s-84.61 37.881187-84.61 84.61v40.08h-13.36c-14.754762.005519-26.714481 11.965238-26.72 26.72v106.87c.005519 14.754762 11.965238 26.714481 26.72 26.72h195.94c14.754762-.005519 26.714481-11.965238 26.72-26.72v-106.87c-.005519-14.754762-11.965238-26.714481-26.72-26.72zm-84.22 105.31c-14.712866 0-26.64-11.927134-26.64-26.64s11.927134-26.64 26.64-26.64 26.64 11.927134 26.64 26.64-11.927134 26.64-26.64 26.64zm39.69-105.27h-80.16v-40.12c0-22.135572 17.944428-40.079998 40.08-40.079998s40.08 17.944426 40.08 40.079998z"/></g></svg>

<svg id="Layer_1" data-name="Layer 1" xmlns="http://www.w3.org/2000/svg" viewBox="0 0 642 642"><polygon points="344.97 416.86 344.97 273.07 416.86 273.07 416.86 225.14 225.14 225.14 225.14 273.07 297.03 273.07 297.03 416.86 344.97 416.86"/><path d="M352.63,464.8H129.27V177.2H512.73v55.89c1.52-.06,3-.09,4.59-.09a124,124,0,0,1,43.35,7.78V177.2a47.93,47.93,0,0,0-47.93-47.93H129.27A47.93,47.93,0,0,0,81.34,177.2V464.8a47.93,47.93,0,0,0,47.93,47.93H352.63Z"/><path d="M517.22,357.63v.05h.17v-.08l-.08-.08h0S517.24,357.6,517.22,357.63Z"/><path d="M615.28,397.69H601.92V357.61a84.61,84.61,0,0,0-169.22,0v40.08H419.34a26.73,26.73,0,0,0-26.72,26.72V531.28A26.73,26.73,0,0,0,419.34,558H615.28A26.73,26.73,0,0,0,642,531.28V424.41A26.73,26.73,0,0,0,615.28,397.69ZM517.7,503a26.64,26.64,0,1,1,26.64-26.64A26.64,26.64,0,0,1,517.7,503Zm39.69-105.27H477.23V357.61a40.08,40.08,0,0,1,80.16,0Z"/></svg>
